dist/svg/folder.svg

<!-- Generated by Trend Micro Style Portal -->
<svg version="1.1" xmlns="http://www.w3.org/2000/svg" width="16" height="16" viewBox="0 0 16 16">
  <title>folder</title>
  <path fill="rgb(34,34,34)" d="M0 6h16v7.93c0 0.003 0 0.008 0 0.012 0 0.564-0.441 1.026-0.997 1.058l-0.003 0h-14c-0.559-0.033-1-0.494-1-1.058 0-0.004 0-0.008 0-0.012v0.001-7.93zM15 3h-7l-1-2h-6c-0.018-0.001-0.039-0.002-0.060-0.002-0.516 0-0.935 0.416-0.94 0.931v3.070h16v-1.070c-0.005-0.516-0.424-0.932-0.94-0.932-0.021 0-0.042 0.001-0.063 0.002l0.003-0z"></path>
</svg>

<svg width="16" height="16" viewBox="0 0 16 16" fill="rgb(34, 34, 34)" xmlns="http://www.w3.org/2000/svg"><title>folder</title><path d="M0 6H16V13.93C16 13.933 16 13.938 16 13.942C16 14.506 15.559 14.968 15.003 15H15H1C0.441 14.967 0 14.506 0 13.942C0 13.938 0 13.934 0 13.93V6ZM15 3H8L7 1H1C0.982 0.999001 0.961 0.998001 0.94 0.998001C0.424 0.998001 0.005 1.414 0 1.929V4.999H16V3.929C15.995 3.413 15.576 2.997 15.06 2.997C15.039 2.997 15.018 2.998 14.997 2.999L15 3Z" fill="rgb(34, 34, 34)" fill-opacity="1.00"/></svg>
